svgs/solid/clarinet.svg

<svg xmlns="http://www.w3.org/2000/svg" viewBox="0 0 640 512"><!--! Font Awesome Pro 6.0.0-alpha3 by @fontawesome - https://fontawesome.com License - https://fontawesome.com/license (Commercial License) --><path d="M631.6 129.9c-5.219-2.781-11.53-2.5-16.44 .7969L571.2 160L480 159.1V127.1h16c8.801 0 16-7.201 16-15.1C512 103.2 504.8 96 496 96h-256C231.2 96 224 103.2 224 111.1c0 8.799 7.199 15.1 16 15.1H256v31.1L101.3 159.1c-3.5 0-6.875 .4995-10.12 1.625L11 188.4C4.375 190.5 0 196.6 0 203.5v73c0 6.875 4.375 13 11 15.12l80.13 26.75c3.25 1.125 6.625 1.623 10.12 1.623L571.2 320l43.97 29.31C617.8 351.1 620.9 352 624 352c2.594 0 5.188-.625 7.562-1.891C636.8 347.3 640 341.9 640 336v-192C640 138.1 636.8 132.7 631.6 129.9zM384 127.1h64v31.1l-64 .0002V127.1zM288 127.1h64v31.1L288 159.1V127.1zM272 264c-13.25 0-24-10.75-24-24S258.8 216 272 216S296 226.8 296 240S285.3 264 272 264zM368 264c-13.25 0-24-10.75-24-24s10.75-24 24-24s24 10.75 24 24S381.3 264 368 264zM464 264c-13.25 0-24-10.75-24-24s10.75-24 24-24s24 10.75 24 24S477.3 264 464 264z"/></svg>

<svg xmlns="http://www.w3.org/2000/svg" viewBox="0 0 640 512"><!-- Font Awesome Pro 6.0.0-alpha2 by @fontawesome - https://fontawesome.com License - https://fontawesome.com/license (Commercial License) --><path d="M631.562 129.891C626.344 127.109 620.031 127.391 615.125 130.687L571.156 160H480V128H496C504.801 128 512 120.799 512 112C512 103.199 504.801 96 496 96H240C231.199 96 224 103.199 224 112C224 120.799 231.199 128 240 128H256V160H101.25C97.75 160 94.375 160.5 91.125 161.625L11 188.375C4.375 190.5 0 196.625 0 203.5V276.5C0 283.375 4.375 289.5 11 291.625L91.125 318.375C94.375 319.5 97.75 320 101.25 320H571.156L615.125 349.312C617.812 351.094 620.906 352 624 352C626.594 352 629.188 351.375 631.562 350.109C636.75 347.328 640 341.906 640 336V144C640 138.094 636.75 132.672 631.562 129.891ZM384 128H448V160H384V128ZM288 128H352V160H288V128ZM272 264C258.75 264 248 253.25 248 240S258.75 216 272 216S296 226.75 296 240S285.25 264 272 264ZM368 264C354.75 264 344 253.25 344 240S354.75 216 368 216S392 226.75 392 240S381.25 264 368 264ZM464 264C450.75 264 440 253.25 440 240S450.75 216 464 216S488 226.75 488 240S477.25 264 464 264Z"/></svg>
